static/logo-lyft.svg

<svg fill="none" height="88" viewBox="0 0 128 88" width="128" xmlns="http://www.w3.org/2000/svg"><g fill="#ff00bf"><path d="m18.7317 51.5125v-49.95122h-18.7317v46.82922c0 12.8687 8.49639 18.7302 16.3902 18.7302 2.3524 0 4.7095-.5385 6.8231-1.5251.3122-.1452.8117-.4573.8117-.4573s-.4746-.4996-.6681-.7197c-2.9971-3.4091-4.6252-7.8454-4.6252-12.9061z"/><path d="m128 39.0248v-18.7317h-6.684c-2.793-14.72316-18.267-24.39185-33.817-18.58034-8.6603 3.23747-15.6941 13.58984-15.6941 22.83554v42.5553s.7727.0016.7805.0016h.0328c4.8234-.2076 9.3315-2.2478 12.6907-5.746 3.3717-3.5091 5.2277-8.1155 5.2277-12.9686h7.8049v-18.7317h-7.8049v-5.1481c0-2.0012 1.0568-3.8728 2.8067-4.8453 4.7968-2.663 9.6807.7634 9.6807 5.3105v17.1707c0 6.7949 2.564 13.0997 7.22 17.7561 4.453 4.4535 10.474 7.0135 16.952 7.207h.804v-18.7176s0-.0016-.002-.0016c-3.501-.0093-6.242-2.83-6.242-6.2439v-3.1219z"/><path d="m48.3902 20.293v24.9756c0 1.7249-1.3971 3.1219-3.122 3.1219s-3.1219-1.397-3.1219-3.1219v-24.9756h-18.7317v31.2195c0 8.6072 7.0025 15.6097 15.6097 15.6097 3.7198 0 7.3241-1.3315 10.1463-3.7463-.2919 2.304-1.5641 4.2224-3.6807 5.5477-1.984 1.2425-4.5674 1.8982-7.4724 1.8997-2.9909 0-6.0348-.704-8.8008-2.0355 0 0-.4948-.2357-1.1192-.5916v16.6384c4.1693 1.689 8.7352 2.5819 13.1606 2.5819 6.9978 0 13.3838-2.1885 17.9793-6.1612 5.159-4.4597 7.8845-10.9658 7.8845-18.816v-42.1463z"/></g></svg>

<svg width="128" height="88" viewBox="0 0 128 88" fill="none" xmlns="http://www.w3.org/2000/svg">
<path d="M18.7317 51.5125V1.56128H0V48.3905C0 61.2592 8.49639 67.1207 16.3902 67.1207C18.7426 67.1207 21.0997 66.5822 23.2133 65.5956C23.5255 65.4504 24.025 65.1383 24.025 65.1383C24.025 65.1383 23.5504 64.6387 23.3569 64.4186C20.3598 61.0095 18.7317 56.5732 18.7317 51.5125Z" fill="#FF00BF"/>
<path d="M128 39.0248V20.2931H121.316C118.523 5.56994 103.049 -4.09875 87.499 1.71276C78.8387 4.95023 71.8049 15.3026 71.8049 24.5483V67.1036C71.8049 67.1036 72.5776 67.1052 72.5854 67.1052C72.5963 67.1052 72.6073 67.1052 72.6182 67.1052C77.4416 66.8976 81.9497 64.8574 85.3089 61.3592C88.6806 57.8501 90.5366 53.2437 90.5366 48.3906H98.3415V29.6589H90.5366V24.5108C90.5366 22.5096 91.5934 20.638 93.3433 19.6655C98.1401 17.0025 103.024 20.4289 103.024 24.976V42.1467C103.024 48.9416 105.588 55.2464 110.244 59.9028C114.697 64.3563 120.718 66.9163 127.196 67.1098C127.204 67.1098 128 67.1098 128 67.1098V48.3922C128 48.3922 128 48.3906 127.998 48.3906C124.497 48.3813 121.756 45.5606 121.756 42.1467V39.0248H128Z" fill="#FF00BF"/>
<path d="M48.3902 20.293V45.2686C48.3902 46.9935 46.9931 48.3905 45.2682 48.3905C43.5433 48.3905 42.1463 46.9935 42.1463 45.2686V20.293H23.4146V51.5125C23.4146 60.1197 30.4171 67.1222 39.0243 67.1222C42.7441 67.1222 46.3484 65.7907 49.1706 63.3759C48.8787 65.6799 47.6065 67.5983 45.4899 68.9236C43.5059 70.1661 40.9225 70.8218 38.0175 70.8233C35.0266 70.8233 31.9827 70.1193 29.2167 68.7878C29.2167 68.7878 28.7219 68.5521 28.0975 68.1962V84.8346C32.2668 86.5236 36.8327 87.4165 41.2581 87.4165C48.2559 87.4165 54.6419 85.228 59.2374 81.2553C64.3964 76.7956 67.1219 70.2895 67.1219 62.4393V20.293H48.3902Z" fill="#FF00BF"/>
</svg>
